X:1
T:Title
%%score { ( 1 3 ) | ( 2 4 ) }
L:1/8
M:4/4
K:Bb
V:1 treble nm="Grand Piano"
V:3 treble 
V:2 bass 
V:4 bass 
V:1
 z4 z2[Q:1/4=94] FF | [DB][DB][DB][DB] [Fd][Fc][FB][FA] |[M:3/4] GG GG c2 |[M:1/4] cB | %4
[M:4/4] AAAG FFGA |[M:3/4] B2- [EB-][EB-] [DB]2 |[M:1/4] FF | %7
[M:4/4] [DB][DB][DB][DB] [Fd][Fc][FB][FA] |[M:3/4] GG GG c2 |[M:1/4] cB |[M:4/4] AAAG FFGA | %11
[M:3/4] B2- [EB-][EB-] [DB]2 |[M:1/4] AB |[M:4/4] cccc c2 [FB]c |[M:3/4] dd [Fd][Fc] [FB]2 | %15
[M:1/4] [FB][FA] |[M:4/4] GGGG [Fc][FB][EA][DB] |[M:7/8] c-c-c- c- c3 |[M:1/4] FF | %19
[M:4/4] [DB][DB][DB][DB] [Fd][Fc][FB][FA] |[M:3/4] GG GG c2 |[M:1/4] cB |[M:4/4] AAAG FFGA | %23
[M:7/4] B6 z2 z2 z4 |] %24
V:2
 z4 z2 F,F, | [B,,F,][B,,F,][B,,F,][B,,F,] [B,,B,][C,A,][D,B,][D,B,] | %2
[M:3/4] [E,B,E][E,B,E] [E,B,E][E,B,E] [E,G,E]2 |[M:1/4] [E,G,E][E,G,E] | %4
[M:4/4] [F,E][F,E][F,CE][F,B,E] [F,A,E][F,A,E][F,CE][F,CE] |[M:3/4] z2 G,G, F,2 |[M:1/4] F,F, | %7
[M:4/4] [B,,F,][B,,F,][B,,F,][B,,F,] [B,,B,][C,A,][D,B,][D,B,] | %8
[M:3/4] [E,B,E][E,B,E] [E,B,E][E,B,E] [E,G,E]2 |[M:1/4] [E,G,E][E,G,E] | %10
[M:4/4] [F,E][F,E][F,CE][F,B,E] [F,A,E][F,A,E][F,CE][F,CE] |[M:3/4] z2 G,G, F,2 | %12
[M:1/4] [F,F][F,G,F] |[M:4/4] [F,A,F][F,A,F][F,A,F][F,A,F] [F,A,F]2 [D,B,][K:treble][F,A,F] | %14
[M:3/4] [B,F][B,F][K:bass] [B,,B,][C,A,] [D,B,]2 |[M:1/4] [D,B,][D,B,] | %16
[M:4/4] [E,B,E][E,B,E][E,B,E][E,B,] [E,A,][D,B,][C,F,][B,,B,] | %17
[M:7/8] [F,A,F]2 [C,G,] [C,G,] [F,A,]3 |[M:1/4] F,F, | %19
[M:4/4] [B,,F,][B,,F,][B,,F,][B,,F,] [B,,B,][C,A,][D,B,][D,B,] | %20
[M:3/4] [E,B,E][E,B,E] [E,B,E][E,B,E] [E,G,E]2 |[M:1/4] [E,G,E][E,G,E] | %22
[M:4/4] [F,E][F,E][F,CE][F,B,E] [F,A,E][F,A,E][F,CE][F,CE] |[M:7/4] z2 G,G, F,2 z2 z2 z4 |] %24
V:3
 x8 | x8 |[M:3/4] x6 |[M:1/4] x2 |[M:4/4] x8 |[M:3/4] [B,D]2 z2 z2 |[M:1/4] x2 |[M:4/4] x8 | %8
[M:3/4] x6 |[M:1/4] x2 |[M:4/4] x8 |[M:3/4] [B,D]2 z2 z2 |[M:1/4] x2 |[M:4/4] x8 |[M:3/4] x6 | %15
[M:1/4] x2 |[M:4/4] x8 |[M:7/8] z2 =E E F3 |[M:1/4] x2 |[M:4/4] x8 |[M:3/4] x6 |[M:1/4] x2 | %22
[M:4/4] x8 |[M:7/4] [B,D]2 EE D2 z2 z2 z4 |] %24
V:4
 x8 | x8 |[M:3/4] x6 |[M:1/4] x2 |[M:4/4] x8 |[M:3/4] B,,6 |[M:1/4] x2 |[M:4/4] x8 |[M:3/4] x6 | %9
[M:1/4] x2 |[M:4/4] x8 |[M:3/4] B,,6 |[M:1/4] x2 |[M:4/4] x7[K:treble] x |[M:3/4] x2[K:bass] x4 | %15
[M:1/4] x2 |[M:4/4] x8 |[M:7/8] x7 |[M:1/4] x2 |[M:4/4] x8 |[M:3/4] x6 |[M:1/4] x2 |[M:4/4] x8 | %23
[M:7/4] B,,6 z2 z2 z4 |] %24

